X:6
T: Lányka megyen az utcán
O: Bogdánfalva (Bákó), 1929
Q: "Allegro" 1/4=152
L:1/8
M:2/4
K:F
DDDD | DD d2 | 
cBAG | AA A2 | 
dcBG | AE F2 | 
FDEC | DDD2 | 

